Papirus/22x22/panel/megasync-status-syncing.svg

<?xml version="1.0" encoding="UTF-8" standalone="no"?>
<svg xmlns="http://www.w3.org/2000/svg" height="22" width="22" version="1.1">
 <defs>
  <style type="text/css" id="current-color-scheme">
   .ColorScheme-Text { color:#5c616c; } .ColorScheme-Highlight { color:#5294e2; } .ColorScheme-ButtonBackground { color:#d3dae3; }
  </style>
 </defs>
 <g>
  <path d="M 7.8346043,10.496937 6.264108,13.644331 7.6528816,13.181273 C 8.3559695,14.262408 9.6913364,14.951994 11,15 c 1.479185,0.05501 2.730341,-0.71659 3.470434,-1.99875 L 12.737217,12.001125 C 12.365171,12.644206 11.742093,13.027003 11,13 10.533942,12.983 10.03988,12.791224 9.7020378,12.497187 L 10.979998,12.071134 Z M 7.5337667,8.9948494 9.2663833,9.9949744 C 9.6384298,9.351894 10.257907,8.9729966 11,9 c 0.466058,0.017002 0.96212,0.2067758 1.300163,0.5008126 l -1.27816,0.4257532 3.145393,1.5744972 1.572196,-3.1468937 -1.388173,0.4629578 C 13.648331,7.735992 12.393924,7.0525066 11,7 9.6060757,6.9474934 8.2738592,7.7126891 7.5337667,8.9948494 Z M 7.8346043,10.496937 6.264108,13.644331 7.6528816,13.181273 C 8.3559695,14.262408 9.6913364,14.951994 11,15 c 1.479185,0.05501 2.730341,-0.71659 3.470434,-1.99875 L 12.737217,12.001125 C 12.365171,12.644206 11.742093,13.027003 11,13 10.533942,12.983 10.03988,12.791224 9.7020378,12.497187 L 10.979998,12.071134 Z M 7.5337667,8.9948494 9.2663833,9.9949744 C 9.6384298,9.351894 10.257907,8.9729966 11,9 c 0.466058,0.017002 0.96212,0.2067758 1.300163,0.5008126 l -1.27816,0.4257532 3.145393,1.5744972 1.572196,-3.1468937 -1.388173,0.4629578 C 13.648331,7.735992 12.393924,7.0525066 11,7 9.6060757,6.9474934 8.2738592,7.7126891 7.5337667,8.9948494 Z M 17.708984,6.6503906 15,12.072266 l 0,0.08008 0.835938,0.482422 -0.5,0.867187 C 14.438741,15.056284 12.810042,16.06869 10.962891,16 9.6162114,15.950599 8.3843567,15.284816 7.4492188,14.304688 L 4.2949219,15.355469 C 5.7212683,17.547216 8.187804,19 11,19 15.417713,19 19,15.421256 19,11 19,9.3947451 18.522754,7.9032444 17.708984,6.6503906 Z M 11,3 c -4.4177135,0 -8,3.578744 -8,8 0,1.606811 0.4777481,3.099917 1.2929688,4.353516 L 6.9394531,10.050781 7,9.9277344 7,9.8417969 6.1679688,9.3613281 l 0.5,-0.8671875 C 7.5816898,6.9111805 9.2540464,5.9328352 11.037109,6 c 1.395962,0.052583 2.605163,0.7269755 3.521485,1.6933594 L 17.705078,6.6445312 C 16.278732,4.4527836 13.812196,3 11,3 Z" class="ColorScheme-ButtonBackground" style="fill:currentColor"/>
 </g>
</svg>

<?xml version="1.0"?>
<svg xmlns="http://www.w3.org/2000/svg" height="22" viewBox="0 0 6.21 6.21" width="22" version="1.1" id="svg2">
 <defs id="defs8">
  <style type="text/css" id="current-color-scheme">
   .ColorScheme-Text { color:#5c616c; } .ColorScheme-Highlight { color:#5294e2; } .ColorScheme-ButtonBackground { color:#d3dae3; }
  </style>
 </defs>
 <path style="fill:currentColor" d="m11 3c-4.418 0-8 3.582-8 8 0 1.606 0.478 3.098 1.293 4.352l2.6484-5.303 0.0586-0.1232v-0.082l-0.834-0.4805 0.4981-0.8653c0.101-0.175 0.2159-0.337 0.3359-0.496 0.976-1.299 2.5356-2.061 4.184-2 1.28 0.047 2.256 0.8925 3.134 1.7695l3.387-1.125c-1.427-2.193-3.892-3.6445-6.703-3.6445l-0.002-0.002zm6.707 3.6504l-2.707 5.4256v0.08l0.834 0.481-0.498 0.865c-0.101 0.175-0.216 0.337-0.336 0.496-0.976 1.299-2.536 2.061-4.184 2-1.2796-0.047-2.2564-0.892-3.1344-1.769l-3.3847 1.126c1.427 2.192 3.8911 3.645 6.7011 3.645 4.418 0 8-3.582 8-8 0-1.6051-0.477-3.0961-1.291-4.3496zm-6.561 0.3476c-1.4785-0.055-2.8728 0.7161-3.6128 1.9981l1.7324 1c0.372-0.643 1.0644-1.0251 1.8064-0.9981 0.466 0.017 0.889 0.21 1.227 0.504l-1.278 0.4257 3.145 1.5743 1.572-3.1465-1.388 0.4629c-0.703-1.081-1.895-1.7704-3.204-1.8184v-0.002zm-3.312 3.5l-1.5703 3.147 1.3886-0.463c0.703 1.081 1.8942 1.77 3.2027 1.818 1.479 0.055 2.874-0.716 3.614-1.998l-1.733-1c-0.372 0.643-1.064 1.025-1.806 0.998-0.466-0.017-0.891-0.208-1.2288-0.502l1.2778-0.426-3.145-1.574z" transform="scale(.28222)" id="path4" class="ColorScheme-ButtonBackground"/>
</svg>
